X:54
T: Qiongren nan
N: C1552
O: China,Jilin, Tonghua
S: III, 160]
R: Xiaodiao, Guanggun kuqi]
M: 2/4
L: 1/16
K: F
A2A4c2 | d3fd2c2 | d2c2A2G2 | F8 |
A3GA2c2 | d2f2d2c2 | d2c2A2G2 | F8 |
f4d2c2 | f4d2c2 | f2f2d2c2 | A4c4 |
z2A2A2c2 | d3fd2c2 | A2A4d2 | c4c2A2 |
z2A2G2G2 | z2A2G2G2 | z2c2A2G2 | F8 | G8- | G4z4

@@@ Tune index: 6609
